; generated by PrusaSlicer 2.2.0+win64 on 2021-06-24 at 03:20:05 UTC

; 

; external perimeters extrusion width = 0.60mm
; perimeters extrusion width = 0.43mm
; infill extrusion width = 0.45mm
; solid infill extrusion width = 0.70mm
; top infill extrusion width = 0.43mm
; first layer extrusion width = 0.42mm

M73 P0 R7
M201 X9000 Y9000 Z500 E10000 ; sets maximum accelerations, mm/sec^2
M203 X500 Y500 Z12 E120 ; sets maximum feedrates, mm/sec
M204 P2000 R1500 T2000 ; sets acceleration (P, T) and retract acceleration (R), mm/sec^2
M205 X10.00 Y10.00 Z0.20 E2.50 ; sets the jerk limits, mm/sec
M205 S0 T0 ; sets the minimum extruding and travel feed rate, mm/sec
M107
M862.3 P "MK2S" ; printer model check
M862.1 P0.4 ; nozzle diameter check
M115 U3.2.3 ; tell printer latest fw version
G90 ; use absolute coordinates
M83 ; extruder relative mode
M204 S2000 T1500 ; MK2 firmware only supports the old M204 format
M104 S215 ; set extruder temp
M140 S60 ; set bed temp
M190 S60 ; wait for bed temp
M109 S215 ; wait for extruder temp
G28 W ; home all without mesh bed level
G80 ; mesh bed leveling
G1 Y-3.0 F1000.0 ; go outside print area
G92 E0.0
G1 X60.0 E9.0  F1000.0 ; intro line
M73 P0 R7
G1 X100.0 E12.5 F1000.0 ; intro line
G92 E0.0
G21 ; set units to millimeters
G90 ; use absolute coordinates
M83 ; use relative distances for extrusion
M900 K0.05 ; Filament gcode LA 1.5
M900 K30 ; Filament gcode LA 1.0
;BEFORE_LAYER_CHANGE
G92 E0.0
;0.2


G1 E-0.80000 F2100.00000
G1 Z0.400 F10800.000
;AFTER_LAYER_CHANGE
;0.2
G1 X101.671 Y85.022
G1 Z0.200
G1 E0.80000 F2100.00000
M204 S1000
G1 F1200.000
G1 X102.472 Y84.873 E0.02555
G1 X147.504 Y84.873 E1.41193
G1 X148.392 Y85.047 E0.02837
G1 X149.148 Y85.537 E0.02825
G1 X149.669 Y86.277 E0.02837
G1 X149.875 Y87.158 E0.02837
G1 X149.876 Y122.803 E1.11765
G1 X149.811 Y123.305 E0.01585
G1 X149.643 Y123.778 E0.01574
G1 X149.378 Y124.208 E0.01585
G1 X149.030 Y124.569 E0.01574
G1 X148.329 Y124.978 E0.02543
G1 X147.528 Y125.127 E0.02555
G1 X102.485 Y125.127 E1.41229
G1 X101.975 Y125.068 E0.01609
G1 X101.490 Y124.902 E0.01609
G1 X101.051 Y124.635 E0.01609
G1 X100.681 Y124.280 E0.01609
G1 X100.272 Y123.579 E0.02543
G1 X100.123 Y122.785 E0.02532
G1 X100.123 Y87.231 E1.11478
G1 X100.182 Y86.725 E0.01597
G1 X100.348 Y86.240 E0.01609
G1 X100.615 Y85.801 E0.01609
G1 X100.970 Y85.431 E0.01609
G1 X101.619 Y85.052 E0.02355
; printing object Crazyflie Bolt Mount test.stl id:0 copy 0
G1 F8640.000
G1 X102.472 Y84.873 E-0.20126
G1 X104.892 Y84.873 E-0.55874
G1 E-0.04000 F2100.00000
G1 Z0.600 F10800.000
G1 X139.435 Y118.466
G1 Z0.200
G1 E0.80000 F2100.00000
G1 F1200.000
G1 X139.860 Y118.328 E0.01402
G1 X140.301 Y118.290 E0.01386
G1 X140.748 Y118.353 E0.01418
G1 X141.165 Y118.515 E0.01403
G1 X141.534 Y118.768 E0.01402
G1 X141.837 Y119.097 E0.01402
G1 X142.057 Y119.486 E0.01402
G1 X142.181 Y119.910 E0.01383
G1 X142.207 Y120.137 E0.00716
G1 X142.216 Y120.778 E0.02013
G1 X142.184 Y121.013 E0.00744
G1 X142.104 Y121.270 E0.00842
G1 X141.980 Y121.499 E0.00820
G1 X141.812 Y121.697 E0.00811
G1 X141.615 Y121.863 E0.00810
G1 X141.391 Y121.984 E0.00798
G1 X141.160 Y122.069 E0.00774
G1 X140.528 Y122.190 E0.02017
G1 X140.306 Y122.210 E0.00698
G1 X140.080 Y122.203 E0.00710
G1 X139.454 Y122.098 E0.01990
G1 X139.222 Y122.032 E0.00757
G1 X139.007 Y121.934 E0.00740
G1 X138.784 Y121.786 E0.00839
G1 X138.597 Y121.603 E0.00820
G1 X138.454 Y121.388 E0.00809
G1 X138.347 Y121.151 E0.00815
G1 X138.296 Y120.894 E0.00823
G1 X138.290 Y120.239 E0.02053
G1 X138.340 Y119.806 E0.01367
G1 X138.486 Y119.395 E0.01366
G1 X138.604 Y119.185 E0.00755
G1 X138.879 Y118.848 E0.01365
G1 X139.057 Y118.694 E0.00740
G1 X139.384 Y118.497 E0.01195
G1 X139.480 Y118.068 F10800.000
G1 F8640.000
G1 X139.860 Y118.328 E-0.11677
G1 X140.301 Y118.290 E-0.10205
G1 X140.748 Y118.353 E-0.10440
G1 X141.165 Y118.515 E-0.10330
G1 X141.534 Y118.768 E-0.10325
G1 X141.837 Y119.097 E-0.10325
G1 X142.057 Y119.486 E-0.10325
G1 X142.086 Y119.585 E-0.02372
G1 E-0.04000 F2100.00000
G1 Z0.600 F10800.000
G1 X137.918 Y120.813
G1 Z0.200
G1 E0.80000 F2100.00000
G1 F1200.000
G1 X137.919 Y120.932 E0.00375
G1 X137.985 Y121.267 E0.01071
G1 X138.124 Y121.572 E0.01049
G1 X138.305 Y121.845 E0.01028
G1 X138.451 Y121.988 E0.00640
G1 X137.508 Y121.963 E0.02959
G1 X112.492 Y121.963 E0.78433
G1 X111.552 Y121.988 E0.02948
G1 X111.792 Y121.714 E0.01142
G1 X111.953 Y121.417 E0.01057
G1 X112.054 Y121.096 E0.01057
G1 X112.092 Y120.815 E0.00886
G1 X112.641 Y120.962 E0.01782
G1 X113.217 Y121.026 E0.01818
G1 X136.783 Y121.026 E0.73887
G1 X137.359 Y120.962 E0.01818
G1 X137.860 Y120.828 E0.01627
G1 F8640.000
G1 X137.919 Y120.932 E-0.02761
G1 X137.985 Y121.267 E-0.07886
G1 X138.124 Y121.572 E-0.07721
G1 X138.305 Y121.845 E-0.07568
G1 X138.451 Y121.988 E-0.04714
G1 X137.508 Y121.963 E-0.21788
G1 X136.487 Y121.963 E-0.23562
G1 E-0.04000 F2100.00000
G1 Z0.600 F10800.000
G1 X142.054 Y121.986
G1 Z0.200
G1 E0.80000 F2100.00000
G1 F1200.000
G1 X142.292 Y121.714 E0.01135
G1 X142.453 Y121.417 E0.01057
G1 X142.554 Y121.096 E0.01057
G1 X142.592 Y120.815 E0.00886
G1 X143.097 Y120.961 E0.01649
G1 X143.642 Y121.026 E0.01721
G1 X146.713 Y121.039 E0.09628
G1 X146.713 Y121.963 E0.02898
G1 X142.487 Y121.967 E0.13251
G1 X142.114 Y121.984 E0.01170
G1 F8640.000
G1 X142.292 Y121.714 E-0.07471
G1 X142.453 Y121.417 E-0.07784
G1 X142.554 Y121.096 E-0.07785
G1 X142.592 Y120.815 E-0.06527
G1 X143.097 Y120.961 E-0.12146
G1 X143.642 Y121.026 E-0.12671
G1 X144.578 Y121.030 E-0.21616
G1 E-0.04000 F2100.00000
G1 Z0.600 F10800.000
G1 X142.565 Y120.415
G1 Z0.200
G1 E0.80000 F2100.00000
G1 F1200.000
G1 X142.498 Y119.817 E0.01889
G1 X142.375 Y119.399 E0.01364
G1 X142.176 Y119.012 E0.01364
G1 X141.907 Y118.670 E0.01364
G1 X141.578 Y118.385 E0.01364
G1 X141.201 Y118.168 E0.01364
G1 X140.790 Y118.025 E0.01364
G1 X140.359 Y117.964 E0.01364
G1 X139.924 Y117.984 E0.01364
G1 X139.501 Y118.087 E0.01364
G1 X139.101 Y118.270 E0.01380
G1 X138.922 Y118.385 E0.00667
G1 X138.754 Y118.516 E0.00667
G1 X138.451 Y118.835 E0.01380
G1 X138.213 Y119.205 E0.01380
G1 X138.126 Y119.394 E0.00652
G1 X138.002 Y119.817 E0.01380
G1 X137.945 Y120.415 E0.01885
G1 X137.289 Y120.591 E0.02130
G1 X136.762 Y120.649 E0.01663
G1 X113.238 Y120.649 E0.73756
G1 X112.711 Y120.591 E0.01663
G1 X112.055 Y120.415 E0.02130
G1 X111.998 Y119.817 E0.01885
G1 X111.874 Y119.394 E0.01380
G1 X111.787 Y119.205 E0.00652
G1 X111.549 Y118.835 E0.01380
G1 X111.250 Y118.520 E0.01362
G1 X111.078 Y118.385 E0.00686
G1 X110.899 Y118.270 E0.00667
G1 X110.499 Y118.087 E0.01380
G1 X110.076 Y117.984 E0.01364
G1 X109.641 Y117.964 E0.01364
G1 X109.210 Y118.025 E0.01364
G1 X108.799 Y118.168 E0.01364
G1 X108.422 Y118.385 E0.01364
G1 X108.093 Y118.670 E0.01364
G1 X107.824 Y119.012 E0.01364
G1 X107.625 Y119.399 E0.01364
G1 X107.502 Y119.817 E0.01364
G1 X107.445 Y120.412 E0.01876
G1 X106.828 Y120.590 E0.02016
G1 X106.334 Y120.649 E0.01557
G1 X103.590 Y120.661 E0.08605
G1 X103.590 Y89.339 E0.98207
G1 X106.334 Y89.351 E0.08605
G1 X106.828 Y89.410 E0.01557
G1 X107.445 Y89.588 E0.02016
G1 X107.502 Y90.183 E0.01876
G1 X107.625 Y90.601 E0.01364
G1 X107.824 Y90.988 E0.01364
G1 X108.093 Y91.330 E0.01364
G1 X108.422 Y91.615 E0.01364
G1 X108.799 Y91.832 E0.01364
G1 X109.210 Y91.975 E0.01364
G1 X109.641 Y92.036 E0.01364
G1 X110.076 Y92.016 E0.01364
G1 X110.499 Y91.913 E0.01364
G1 X110.899 Y91.730 E0.01380
G1 X111.078 Y91.615 E0.00667
G1 X111.246 Y91.484 E0.00667
G1 X111.549 Y91.165 E0.01380
G1 X111.787 Y90.795 E0.01380
G1 X111.874 Y90.606 E0.00652
G1 X111.998 Y90.183 E0.01380
G1 X112.055 Y89.585 E0.01885
G1 X112.711 Y89.409 E0.02130
G1 X113.238 Y89.351 E0.01663
G1 X136.762 Y89.351 E0.73756
G1 X137.289 Y89.409 E0.01663
G1 X137.945 Y89.585 E0.02130
G1 X138.002 Y90.183 E0.01885
G1 X138.126 Y90.606 E0.01380
G1 X138.213 Y90.795 E0.00652
G1 X138.451 Y91.165 E0.01380
G1 X138.750 Y91.480 E0.01362
G1 X138.922 Y91.615 E0.00686
G1 X139.101 Y91.730 E0.00667
G1 X139.501 Y91.913 E0.01380
G1 X139.924 Y92.016 E0.01364
G1 X140.359 Y92.036 E0.01364
G1 X140.790 Y91.975 E0.01364
G1 X141.201 Y91.832 E0.01364
G1 X141.578 Y91.615 E0.01364
G1 X141.907 Y91.330 E0.01364
G1 X142.176 Y90.988 E0.01364
G1 X142.375 Y90.601 E0.01364
G1 X142.498 Y90.183 E0.01364
G1 X142.555 Y89.588 E0.01876
G1 X143.172 Y89.410 E0.02016
G1 X143.666 Y89.351 E0.01557
G1 X146.410 Y89.339 E0.08605
G1 X146.410 Y120.661 E0.98207
G1 X143.666 Y120.649 E0.08605
G1 X143.172 Y120.590 E0.01557
G1 X142.623 Y120.432 E0.01793
G1 X142.165 Y120.417 F10800.000
G1 F8640.000
G1 X142.498 Y119.817 E-0.14497
G1 X142.375 Y119.399 E-0.10048
G1 X142.176 Y119.012 E-0.10048
G1 X141.907 Y118.670 E-0.10048
G1 X141.578 Y118.385 E-0.10048
G1 X141.201 Y118.168 E-0.10048
G1 X140.790 Y118.025 E-0.10048
G1 X140.738 Y118.018 E-0.01214
G1 E-0.04000 F2100.00000
G1 Z0.600 F10800.000
G1 X142.592 Y89.185
G1 Z0.200
G1 E0.80000 F2100.00000
G1 F1200.000
G1 X142.550 Y88.890 E0.00932
G1 X142.453 Y88.582 E0.01013
G1 X142.292 Y88.286 E0.01055
G1 X142.054 Y88.014 E0.01135
G1 X142.487 Y88.033 E0.01358
G1 X146.713 Y88.037 E0.13251
G1 X146.713 Y88.961 E0.02898
G1 X143.642 Y88.974 E0.09628
G1 X143.097 Y89.039 E0.01721
G1 X142.650 Y89.168 E0.01460
G1 X142.216 Y89.221 F10800.000
G1 F1200.000
G1 X142.207 Y89.863 E0.02015
G1 X142.181 Y90.090 E0.00716
G1 X142.057 Y90.514 E0.01383
G1 X141.837 Y90.903 E0.01402
G1 X141.534 Y91.232 E0.01402
G1 X141.165 Y91.485 E0.01402
G1 X140.749 Y91.647 E0.01402
G1 X140.312 Y91.710 E0.01383
G1 X140.076 Y91.703 E0.00740
G1 X139.644 Y91.615 E0.01383
G1 X139.237 Y91.430 E0.01402
G1 X138.883 Y91.157 E0.01402
G1 X138.600 Y90.810 E0.01402
G1 X138.405 Y90.415 E0.01383
G1 X138.339 Y90.188 E0.00740
G1 X138.290 Y89.761 E0.01348
G1 X138.296 Y89.107 E0.02049
G1 X138.341 Y88.863 E0.00781
G1 X138.454 Y88.612 E0.00861
G1 X138.597 Y88.397 E0.00811
G1 X138.784 Y88.214 E0.00819
G1 X138.995 Y88.073 E0.00797
G1 X139.221 Y87.968 E0.00781
G1 X139.454 Y87.902 E0.00759
G1 X140.080 Y87.797 E0.01990
G1 X140.301 Y87.791 E0.00693
G1 X140.528 Y87.809 E0.00714
G1 X141.159 Y87.930 E0.02016
G1 X141.380 Y88.011 E0.00737
G1 X141.615 Y88.137 E0.00837
G1 X141.812 Y88.303 E0.00810
G1 X141.980 Y88.501 E0.00811
G1 X142.104 Y88.730 E0.00819
G1 X142.181 Y88.974 E0.00802
G1 X142.208 Y89.161 E0.00594
G1 X142.575 Y89.398 F10800.000
G1 F8640.000
G1 X142.207 Y89.863 E-0.16209
G1 X142.181 Y90.090 E-0.05272
G1 X142.057 Y90.514 E-0.10185
G1 X141.837 Y90.903 E-0.10325
G1 X141.534 Y91.232 E-0.10325
G1 X141.165 Y91.485 E-0.10325
G1 X140.749 Y91.647 E-0.10325
G1 X140.619 Y91.666 E-0.03034
G1 E-0.04000 F2100.00000
G1 Z0.600 F10800.000
G1 X138.451 Y88.012
G1 Z0.200
G1 E0.80000 F2100.00000
G1 F1200.000
G1 X138.305 Y88.155 E0.00640
G1 X138.123 Y88.429 E0.01031
G1 X137.979 Y88.749 E0.01101
G1 X137.919 Y89.071 E0.01027
G1 X137.918 Y89.187 E0.00364
G1 X137.359 Y89.038 E0.01815
G1 X136.783 Y88.974 E0.01818
G1 X113.217 Y88.974 E0.73887
G1 X112.641 Y89.038 E0.01818
G1 X112.092 Y89.184 E0.01782
G1 X112.050 Y88.890 E0.00932
G1 X111.953 Y88.582 E0.01013
G1 X111.792 Y88.286 E0.01055
G1 X111.552 Y88.012 E0.01142
G1 X112.492 Y88.037 E0.02948
G1 X137.508 Y88.037 E0.78433
G1 X138.391 Y88.014 E0.02770
G1 F8640.000
G1 X138.305 Y88.155 E-0.03819
G1 X138.123 Y88.429 E-0.07592
G1 X137.979 Y88.749 E-0.08106
G1 X137.919 Y89.071 E-0.07560
G1 X137.918 Y89.187 E-0.02681
G1 X137.359 Y89.038 E-0.13369
G1 X136.783 Y88.974 E-0.13389
G1 X135.939 Y88.974 E-0.19485
G1 E-0.04000 F2100.00000
G1 Z0.600 F10800.000
G1 X111.716 Y89.221
G1 Z0.200
G1 E0.80000 F2100.00000
G1 F1200.000
G1 X111.707 Y89.863 E0.02015
G1 X111.681 Y90.090 E0.00716
G1 X111.557 Y90.514 E0.01383
G1 X111.337 Y90.903 E0.01402
G1 X111.034 Y91.232 E0.01402
G1 X110.665 Y91.485 E0.01402
G1 X110.249 Y91.647 E0.01402
G1 X109.812 Y91.710 E0.01383
G1 X109.576 Y91.703 E0.00740
G1 X109.144 Y91.615 E0.01383
G1 X108.737 Y91.430 E0.01402
G1 X108.388 Y91.160 E0.01383
G1 X108.228 Y90.986 E0.00740
G1 X107.990 Y90.615 E0.01383
G1 X107.840 Y90.194 E0.01402
G1 X107.790 Y89.761 E0.01367
G1 X107.796 Y89.106 E0.02053
G1 X107.847 Y88.849 E0.00823
G1 X107.954 Y88.612 E0.00814
G1 X108.088 Y88.410 E0.00759
G1 X108.283 Y88.215 E0.00866
G1 X108.495 Y88.073 E0.00801
G1 X108.721 Y87.968 E0.00781
G1 X108.954 Y87.902 E0.00759
G1 X109.580 Y87.797 E0.01990
G1 X109.801 Y87.791 E0.00693
G1 X110.028 Y87.809 E0.00714
G1 X110.659 Y87.930 E0.02016
G1 X110.880 Y88.011 E0.00737
G1 X111.115 Y88.137 E0.00837
G1 X111.312 Y88.303 E0.00810
G1 X111.480 Y88.501 E0.00811
G1 X111.604 Y88.730 E0.00819
G1 X111.681 Y88.974 E0.00802
G1 X111.708 Y89.161 E0.00594
G1 X112.075 Y89.398 F10800.000
G1 F8640.000
G1 X111.707 Y89.863 E-0.16209
G1 X111.681 Y90.090 E-0.05272
G1 X111.557 Y90.514 E-0.10185
G1 X111.337 Y90.903 E-0.10325
G1 X111.034 Y91.232 E-0.10325
G1 X110.665 Y91.485 E-0.10325
G1 X110.249 Y91.647 E-0.10325
G1 X110.119 Y91.666 E-0.03034
G1 E-0.04000 F2100.00000
G1 Z0.600 F10800.000
G1 X107.951 Y88.014
G1 Z0.200
G1 E0.80000 F2100.00000
G1 F1200.000
G1 X107.794 Y88.171 E0.00696
G1 X107.623 Y88.429 E0.00970
G1 X107.485 Y88.733 E0.01047
G1 X107.419 Y89.068 E0.01071
G1 X107.418 Y89.187 E0.00375
G1 X106.903 Y89.039 E0.01682
G1 X106.358 Y88.974 E0.01721
G1 X103.287 Y88.961 E0.09628
G1 X103.287 Y88.037 E0.02898
G1 X107.513 Y88.033 E0.13251
G1 X107.891 Y88.016 E0.01185
G1 F8640.000
G1 X107.794 Y88.171 E-0.04209
G1 X107.623 Y88.429 E-0.07144
G1 X107.485 Y88.733 E-0.07708
G1 X107.419 Y89.068 E-0.07886
G1 X107.418 Y89.187 E-0.02764
G1 X106.903 Y89.039 E-0.12390
G1 X106.358 Y88.974 E-0.12671
G1 X105.438 Y88.970 E-0.21230
G1 E-0.04000 F2100.00000
G1 Z0.600 F10800.000
G1 X109.801 Y118.290
G1 Z0.200
G1 E0.80000 F2100.00000
G1 F1200.000
G1 X110.248 Y118.353 E0.01418
G1 X110.665 Y118.515 E0.01403
G1 X111.034 Y118.768 E0.01402
G1 X111.337 Y119.097 E0.01402
G1 X111.557 Y119.486 E0.01402
G1 X111.681 Y119.910 E0.01383
G1 X111.707 Y120.137 E0.00716
G1 X111.716 Y120.778 E0.02013
G1 X111.684 Y121.013 E0.00744
G1 X111.604 Y121.270 E0.00842
G1 X111.480 Y121.499 E0.00820
G1 X111.312 Y121.697 E0.00811
G1 X111.115 Y121.863 E0.00810
G1 X110.891 Y121.984 E0.00798
G1 X110.660 Y122.069 E0.00774
G1 X110.028 Y122.190 E0.02017
G1 X109.806 Y122.210 E0.00698
G1 X109.580 Y122.203 E0.00710
G1 X108.954 Y122.098 E0.01990
G1 X108.721 Y122.032 E0.00759
G1 X108.495 Y121.927 E0.00781
G1 X108.284 Y121.786 E0.00797
G1 X108.097 Y121.603 E0.00819
G1 X107.954 Y121.388 E0.00809
G1 X107.847 Y121.151 E0.00815
G1 X107.796 Y120.894 E0.00823
G1 X107.790 Y120.239 E0.02053
G1 X107.840 Y119.806 E0.01367
G1 X107.990 Y119.385 E0.01402
G1 X108.225 Y119.018 E0.01366
G1 X108.384 Y118.844 E0.00736
G1 X108.557 Y118.694 E0.00722
G1 X108.935 Y118.466 E0.01383
G1 X109.360 Y118.328 E0.01402
G1 X109.741 Y118.295 E0.01198
G1 X110.010 Y117.949 F10800.000
G1 F8640.000
G1 X110.248 Y118.353 E-0.11794
G1 X110.665 Y118.515 E-0.10330
G1 X111.034 Y118.768 E-0.10325
G1 X111.337 Y119.097 E-0.10325
G1 X111.557 Y119.486 E-0.10325
G1 X111.681 Y119.910 E-0.10185
G1 X111.707 Y120.137 E-0.05272
G1 X111.712 Y120.459 E-0.07443
G1 E-0.04000 F2100.00000
G1 Z0.600 F10800.000
G1 X107.418 Y120.813
G1 Z0.200
G1 E0.80000 F2100.00000
G1 F1200.000
G1 X107.419 Y120.932 E0.00375
G1 X107.485 Y121.267 E0.01071
G1 X107.624 Y121.572 E0.01049
G1 X107.805 Y121.845 E0.01028
G1 X107.950 Y121.986 E0.00634
G1 X107.513 Y121.967 E0.01370
G1 X103.287 Y121.963 E0.13251
G1 X103.287 Y121.039 E0.02898
G1 X106.358 Y121.026 E0.09628
G1 X106.903 Y120.961 E0.01721
G1 X107.361 Y120.829 E0.01494
G1 F8640.000
G1 X107.419 Y120.932 E-0.02740
G1 X107.485 Y121.267 E-0.07886
G1 X107.624 Y121.572 E-0.07721
G1 X107.805 Y121.845 E-0.07568
G1 X107.950 Y121.986 E-0.04670
G1 X107.513 Y121.967 E-0.10086
G1 X105.983 Y121.966 E-0.35329
G1 E-0.04000 F2100.00000
G1 Z0.600 F10800.000
G1 X102.910 Y122.340
G1 Z0.200
G1 E0.80000 F2100.00000
G1 F1200.000
G1 X102.910 Y87.660 E1.08738
G1 X107.505 Y87.656 E0.14406
G1 X108.019 Y87.633 E0.01615
G1 X109.022 Y87.491 E0.03173
G1 X109.507 Y87.460 E0.01525
G1 X109.993 Y87.460 E0.01525
G1 X110.478 Y87.492 E0.01525
G1 X111.483 Y87.633 E0.03179
G1 X112.497 Y87.660 E0.03183
G1 X137.503 Y87.660 E0.78403
G1 X138.518 Y87.634 E0.03183
G1 X139.522 Y87.491 E0.03179
