; generated by PrusaSlicer 2.2.0+win64 on 2021-07-07 at 03:50:34 UTC

; 

; external perimeters extrusion width = 0.60mm
; perimeters extrusion width = 0.43mm
; infill extrusion width = 0.45mm
; solid infill extrusion width = 0.70mm
; top infill extrusion width = 0.43mm
; first layer extrusion width = 0.42mm

M73 P0 R48
M201 X9000 Y9000 Z500 E10000 ; sets maximum accelerations, mm/sec^2
M203 X500 Y500 Z12 E120 ; sets maximum feedrates, mm/sec
M204 P2000 R1500 T2000 ; sets acceleration (P, T) and retract acceleration (R), mm/sec^2
M205 X10.00 Y10.00 Z0.20 E2.50 ; sets the jerk limits, mm/sec
M205 S0 T0 ; sets the minimum extruding and travel feed rate, mm/sec
M107
M862.3 P "MK2S" ; printer model check
M862.1 P0.4 ; nozzle diameter check
M115 U3.2.3 ; tell printer latest fw version
G90 ; use absolute coordinates
M83 ; extruder relative mode
M204 S2000 T1500 ; MK2 firmware only supports the old M204 format
M104 S225 ; set extruder temp
M140 S60 ; set bed temp
M190 S60 ; wait for bed temp
M109 S225 ; wait for extruder temp
G28 W ; home all without mesh bed level
G80 ; mesh bed leveling
G1 Y-3.0 F1000.0 ; go outside print area
G92 E0.0
G1 X60.0 E9.0  F1000.0 ; intro line
M73 P0 R48
G1 X100.0 E12.5 F1000.0 ; intro line
G92 E0.0
G21 ; set units to millimeters
G90 ; use absolute coordinates
M83 ; use relative distances for extrusion
M900 K0.05 ; Filament gcode LA 1.5
M900 K30 ; Filament gcode LA 1.0
;BEFORE_LAYER_CHANGE
G92 E0.0
;0.2


G1 E-0.80000 F2100.00000
G1 Z0.400 F10800.000
;AFTER_LAYER_CHANGE
;0.2
G1 X69.939 Y42.300
G1 Z0.200
G1 E0.80000 F2100.00000
M204 S1000
G1 F1200.000
G1 X71.786 Y42.092 E0.05828
G1 X178.146 Y42.091 E3.33485
G1 X180.037 Y42.295 E0.05964
G1 X181.831 Y42.849 E0.05888
G1 X183.491 Y43.735 E0.05899
G1 X184.945 Y44.912 E0.05864
G1 X186.160 Y46.353 E0.05911
G1 X187.072 Y47.986 E0.05864
G1 X187.662 Y49.769 E0.05888
G1 X187.902 Y51.577 E0.05721
G1 X187.905 Y158.330 E3.34716
G1 X187.668 Y160.208 E0.05934
G1 X187.115 Y161.911 E0.05614
G1 X186.223 Y163.550 E0.05851
G1 X185.522 Y164.470 E0.03626
G1 X184.870 Y165.159 E0.02975
G1 X183.586 Y166.199 E0.05180
G1 X181.927 Y167.109 E0.05934
G1 X180.054 Y167.701 E0.06160
G1 X178.157 Y167.909 E0.05983
G1 X71.801 Y167.909 E3.33473
G1 X69.955 Y167.703 E0.05821
G1 X68.169 Y167.151 E0.05864
G1 X66.515 Y166.269 E0.05876
G1 X65.105 Y165.136 E0.05673
G1 X63.845 Y163.653 E0.06101
G1 X62.925 Y162.007 E0.05911
G1 X62.333 Y160.213 E0.05923
G1 X62.094 Y158.293 E0.06066
G1 X62.095 Y51.670 E3.34310
G1 X62.332 Y49.792 E0.05934
G1 X62.885 Y48.089 E0.05614
G1 X63.777 Y46.450 E0.05851
G1 X64.478 Y45.530 E0.03626
G1 X65.838 Y44.224 E0.05915
G1 X67.215 Y43.310 E0.05180
G1 X68.066 Y42.895 E0.02970
G1 X69.882 Y42.319 E0.05972
; printing object Crazyflie Bolt Frame.stl id:0 copy 0
G1 F8640.000
G1 X71.786 Y42.092 E-0.44280
G1 X73.160 Y42.092 E-0.31720
G1 E-0.04000 F2100.00000
G1 Z0.600 F10800.000
G1 X72.680 Y102.591
G1 Z0.200
G1 E0.80000 F2100.00000
G1 F1200.000
G1 X73.126 Y102.625 E0.01403
G1 X73.533 Y102.734 E0.01322
G1 X73.914 Y102.912 E0.01318
G1 X74.258 Y103.153 E0.01318
G1 X74.556 Y103.450 E0.01318
G1 X74.797 Y103.794 E0.01318
G1 X74.974 Y104.175 E0.01318
G1 X75.076 Y104.554 E0.01228
G1 X75.120 Y104.999 E0.01403
G1 X75.083 Y105.419 E0.01322
G1 X74.974 Y105.825 E0.01318
G1 X74.797 Y106.206 E0.01318
G1 X74.556 Y106.550 E0.01318
G1 X74.258 Y106.847 E0.01318
G1 X73.914 Y107.088 E0.01318
G1 X73.533 Y107.266 E0.01318
G1 X73.127 Y107.375 E0.01318
G1 X72.708 Y107.412 E0.01318
G1 X72.289 Y107.375 E0.01318
G1 X71.883 Y107.266 E0.01318
G1 X71.502 Y107.088 E0.01318
G1 X71.158 Y106.847 E0.01318
G1 X70.861 Y106.550 E0.01318
G1 X70.620 Y106.206 E0.01318
G1 X70.442 Y105.825 E0.01318
G1 X70.333 Y105.419 E0.01318
G1 X70.297 Y105.000 E0.01318
G1 X70.333 Y104.581 E0.01318
G1 X70.442 Y104.175 E0.01318
G1 X70.620 Y103.794 E0.01318
G1 X70.861 Y103.450 E0.01318
G1 X71.158 Y103.153 E0.01318
G1 X71.502 Y102.912 E0.01318
G1 X71.883 Y102.734 E0.01318
G1 X72.289 Y102.625 E0.01318
G1 X72.620 Y102.596 E0.01040
G1 X72.877 Y102.243 F10800.000
G1 F8640.000
G1 X73.126 Y102.625 E-0.11700
G1 X73.533 Y102.734 E-0.09735
G1 X73.914 Y102.912 E-0.09706
G1 X74.258 Y103.153 E-0.09706
G1 X74.556 Y103.450 E-0.09706
G1 X74.797 Y103.794 E-0.09706
G1 X74.974 Y104.175 E-0.09706
G1 X75.042 Y104.428 E-0.06033
G1 E-0.04000 F2100.00000
G1 Z0.600 F10800.000
G1 X113.713 Y91.713
G1 Z0.200
G1 E0.80000 F2100.00000
G1 F1200.000
G1 X136.287 Y91.713 E0.70780
G1 X136.287 Y94.213 E0.07839
G1 X155.787 Y94.213 E0.61141
G1 X155.787 Y115.787 E0.67644
G1 X136.287 Y115.787 E0.61141
G1 X136.287 Y118.287 E0.07839
G1 X113.713 Y118.287 E0.70780
G1 X113.713 Y115.787 E0.07839
G1 X94.213 Y115.787 E0.61141
G1 X94.213 Y94.213 E0.67644
G1 X113.713 Y94.213 E0.61141
G1 X113.713 Y91.773 E0.07650
G1 X114.090 Y92.090 F10800.000
G1 F1200.000
G1 X135.910 Y92.090 E0.68415
G1 X135.910 Y94.590 E0.07839
G1 X155.410 Y94.590 E0.61141
G1 X155.410 Y115.410 E0.65280
G1 X135.910 Y115.410 E0.61141
G1 X135.910 Y117.910 E0.07839
G1 X114.090 Y117.910 E0.68415
G1 X114.090 Y115.410 E0.07839
G1 X94.590 Y115.410 E0.61141
G1 X94.590 Y94.590 E0.65280
G1 X114.090 Y94.590 E0.61141
G1 X114.090 Y92.150 E0.07650
G1 X114.275 Y91.735 F10800.000
G1 F8640.000
G1 X117.381 Y92.141 E-0.76000
G1 E-0.04000 F2100.00000
G1 Z0.600 F10800.000
G1 X111.952 Y91.017
G1 Z0.200
G1 E0.80000 F2100.00000
G1 F1200.000
G1 X111.696 Y91.383 E0.01400
G1 X111.383 Y91.696 E0.01388
G1 X111.020 Y91.950 E0.01388
G1 X110.619 Y92.137 E0.01388
G1 X110.191 Y92.251 E0.01388
G1 X109.750 Y92.290 E0.01388
G1 X109.309 Y92.251 E0.01388
G1 X108.910 Y92.145 E0.01295
G1 X108.483 Y91.952 E0.01469
G1 X108.117 Y91.696 E0.01400
G1 X107.804 Y91.383 E0.01388
G1 X107.550 Y91.020 E0.01388
G1 X107.363 Y90.619 E0.01388
G1 X107.249 Y90.191 E0.01388
G1 X107.210 Y89.750 E0.01388
G1 X107.249 Y89.309 E0.01388
G1 X107.363 Y88.881 E0.01388
G1 X107.550 Y88.480 E0.01388
G1 X107.804 Y88.117 E0.01388
G1 X108.117 Y87.804 E0.01388
G1 X108.480 Y87.550 E0.01388
G1 X108.881 Y87.363 E0.01388
G1 X109.309 Y87.249 E0.01388
G1 X109.720 Y87.213 E0.01295
G1 X110.188 Y87.248 E0.01469
G1 X110.619 Y87.363 E0.01400
G1 X111.020 Y87.550 E0.01388
G1 X111.383 Y87.804 E0.01388
G1 X111.696 Y88.117 E0.01388
G1 X111.950 Y88.480 E0.01388
G1 X112.137 Y88.881 E0.01388
G1 X112.251 Y89.309 E0.01388
G1 X112.290 Y89.750 E0.01388
G1 X112.251 Y90.191 E0.01388
G1 X112.145 Y90.590 E0.01295
G1 X111.977 Y90.962 E0.01281
G1 X111.633 Y90.807 F10800.000
G1 F1200.000
G1 X111.406 Y91.139 E0.01262
G1 X111.139 Y91.406 E0.01181
G1 X110.831 Y91.622 E0.01181
G1 X110.489 Y91.781 E0.01181
G1 X110.125 Y91.879 E0.01181
G1 X109.750 Y91.912 E0.01181
G1 X109.375 Y91.879 E0.01181
G1 X109.037 Y91.788 E0.01095
G1 X108.670 Y91.623 E0.01262
G1 X108.361 Y91.406 E0.01186
G1 X108.094 Y91.139 E0.01181
G1 X107.878 Y90.831 E0.01181
G1 X107.719 Y90.489 E0.01181
G1 X107.621 Y90.125 E0.01181
G1 X107.588 Y89.750 E0.01181
G1 X107.621 Y89.375 E0.01181
G1 X107.719 Y89.011 E0.01181
G1 X107.878 Y88.669 E0.01181
G1 X108.094 Y88.361 E0.01181
G1 X108.361 Y88.094 E0.01181
G1 X108.669 Y87.878 E0.01181
G1 X109.011 Y87.719 E0.01181
G1 X109.375 Y87.621 E0.01181
G1 X109.723 Y87.591 E0.01095
G1 X110.124 Y87.621 E0.01262
G1 X110.489 Y87.719 E0.01186
G1 X110.831 Y87.878 E0.01181
G1 X111.139 Y88.094 E0.01181
G1 X111.406 Y88.361 E0.01181
G1 X111.622 Y88.669 E0.01181
G1 X111.781 Y89.011 E0.01181
G1 X111.879 Y89.375 E0.01181
G1 X111.912 Y89.750 E0.01181
G1 X111.879 Y90.125 E0.01181
G1 X111.788 Y90.463 E0.01095
G1 X111.658 Y90.753 E0.00997
G1 X111.836 Y91.152 F10800.000
G1 F8640.000
G1 X111.406 Y91.139 E-0.10657
G1 X111.139 Y91.406 E-0.08700
G1 X110.831 Y91.622 E-0.08700
G1 X110.489 Y91.781 E-0.08700
G1 X110.125 Y91.879 E-0.08700
G1 X109.750 Y91.912 E-0.08700
G1 X109.375 Y91.879 E-0.08700
G1 X109.037 Y91.788 E-0.08064
G1 X108.837 Y91.698 E-0.05078
G1 E-0.04000 F2100.00000
G1 Z0.600 F10800.000
G1 X137.710 Y89.750
G1 Z0.200
G1 E0.80000 F2100.00000
G1 F1200.000
G1 X137.749 Y89.309 E0.01388
G1 X137.863 Y88.881 E0.01388
G1 X138.050 Y88.480 E0.01388
G1 X138.304 Y88.117 E0.01388
G1 X138.617 Y87.804 E0.01388
G1 X138.980 Y87.550 E0.01388
G1 X139.381 Y87.363 E0.01388
G1 X139.809 Y87.249 E0.01388
G1 X140.220 Y87.213 E0.01295
G1 X140.688 Y87.248 E0.01469
G1 X141.119 Y87.363 E0.01400
G1 X141.520 Y87.550 E0.01388
G1 X141.883 Y87.804 E0.01388
G1 X142.196 Y88.117 E0.01388
G1 X142.450 Y88.480 E0.01388
G1 X142.637 Y88.881 E0.01388
G1 X142.751 Y89.309 E0.01388
G1 X142.790 Y89.750 E0.01388
G1 X142.751 Y90.191 E0.01388
G1 X142.637 Y90.619 E0.01388
G1 X142.450 Y91.020 E0.01388
G1 X142.196 Y91.383 E0.01388
G1 X141.883 Y91.696 E0.01388
G1 X141.520 Y91.950 E0.01388
G1 X141.119 Y92.137 E0.01388
G1 X140.691 Y92.251 E0.01388
G1 X140.250 Y92.290 E0.01388
G1 X139.809 Y92.251 E0.01388
G1 X139.410 Y92.145 E0.01295
G1 X138.983 Y91.952 E0.01469
G1 X138.617 Y91.696 E0.01400
G1 X138.304 Y91.383 E0.01388
G1 X138.050 Y91.020 E0.01388
G1 X137.863 Y90.619 E0.01388
G1 X137.749 Y90.191 E0.01388
G1 X137.715 Y89.810 E0.01200
G1 X138.091 Y89.777 F10800.000
G1 F1200.000
G1 X138.121 Y89.375 E0.01265
G1 X138.219 Y89.011 E0.01181
G1 X138.378 Y88.669 E0.01181
G1 X138.594 Y88.361 E0.01181
G1 X138.861 Y88.094 E0.01181
G1 X139.169 Y87.878 E0.01181
G1 X139.511 Y87.719 E0.01181
G1 X139.875 Y87.621 E0.01181
G1 X140.223 Y87.591 E0.01095
G1 X140.624 Y87.621 E0.01262
G1 X140.989 Y87.719 E0.01186
G1 X141.331 Y87.878 E0.01181
G1 X141.639 Y88.094 E0.01181
G1 X141.906 Y88.361 E0.01181
G1 X142.122 Y88.669 E0.01181
G1 X142.281 Y89.011 E0.01181
G1 X142.379 Y89.375 E0.01181
G1 X142.412 Y89.750 E0.01181
G1 X142.379 Y90.125 E0.01181
G1 X142.281 Y90.489 E0.01181
G1 X142.122 Y90.831 E0.01181
G1 X141.906 Y91.139 E0.01181
G1 X141.639 Y91.406 E0.01181
G1 X141.331 Y91.622 E0.01181
G1 X140.989 Y91.781 E0.01181
G1 X140.625 Y91.879 E0.01181
G1 X140.250 Y91.912 E0.01181
G1 X139.875 Y91.879 E0.01181
G1 X139.537 Y91.788 E0.01095
G1 X139.170 Y91.623 E0.01262
G1 X138.861 Y91.406 E0.01186
G1 X138.594 Y91.139 E0.01181
G1 X138.378 Y90.831 E0.01181
G1 X138.219 Y90.489 E0.01181
G1 X138.121 Y90.125 E0.01181
G1 X138.096 Y89.837 E0.00909
G1 X137.743 Y89.580 F10800.000
G1 F8640.000
G1 X138.121 Y89.375 E-0.10684
G1 X138.219 Y89.011 E-0.08700
G1 X138.378 Y88.669 E-0.08700
G1 X138.594 Y88.361 E-0.08700
G1 X138.861 Y88.094 E-0.08700
G1 X139.169 Y87.878 E-0.08700
G1 X139.511 Y87.719 E-0.08700
G1 X139.875 Y87.621 E-0.08700
G1 X140.065 Y87.605 E-0.04415
G1 E-0.04000 F2100.00000
G1 Z0.600 F10800.000
G1 X167.632 Y56.305
G1 Z0.200
G1 E0.80000 F2100.00000
G1 F1200.000
G1 X173.695 Y62.368 E0.26884
G1 X151.368 Y84.695 E0.98999
G1 X145.305 Y78.632 E0.26884
G1 X167.589 Y56.348 E0.98810
G1 X167.632 Y56.839 F10800.000
G1 F1200.000
G1 X173.161 Y62.368 E0.24519
G1 X151.368 Y84.161 E0.96634
G1 X145.839 Y78.632 E0.24519
G1 X167.589 Y56.881 E0.96446
G1 X167.890 Y56.533 F10800.000
G1 F8640.000
G1 X169.934 Y59.191 E-0.76000
G1 E-0.04000 F2100.00000
G1 Z0.600 F10800.000
G1 X175.382 Y52.811
G1 Z0.200
G1 E0.80000 F2100.00000
M73 P2 R47
G1 F1200.000
G1 X175.312 Y52.962 E0.00520
G1 X175.099 Y53.275 E0.01188
G1 X174.844 Y53.530 E0.01129
G1 X174.553 Y53.734 E0.01115
G1 X174.231 Y53.884 E0.01115
G1 X173.887 Y53.976 E0.01115
G1 X173.533 Y54.007 E0.01115
G1 X173.179 Y53.976 E0.01115
G1 X172.835 Y53.884 E0.01115
G1 X172.538 Y53.746 E0.01027
G1 X172.225 Y53.533 E0.01188
G1 X171.970 Y53.278 E0.01129
G1 X171.766 Y52.987 E0.01115
G1 X171.616 Y52.665 E0.01115
G1 X171.524 Y52.321 E0.01115
G1 X171.493 Y51.967 E0.01115
G1 X171.524 Y51.613 E0.01115
G1 X171.616 Y51.269 E0.01115
G1 X171.766 Y50.947 E0.01115
G1 X171.970 Y50.656 E0.01115
G1 X172.222 Y50.404 E0.01115
G1 X172.513 Y50.200 E0.01115
G1 X172.835 Y50.050 E0.01115
G1 X173.179 Y49.958 E0.01115
G1 X173.505 Y49.929 E0.01027
G1 X173.883 Y49.957 E0.01188
G1 X174.231 Y50.050 E0.01129
G1 X174.553 Y50.200 E0.01115
G1 X174.844 Y50.404 E0.01115
G1 X175.096 Y50.656 E0.01115
G1 X175.300 Y50.947 E0.01115
G1 X175.382 Y51.123 E0.00608
G1 X175.411 Y51.013 E0.00357
G1 X175.617 Y50.572 E0.01525
G1 X175.896 Y50.174 E0.01525
G1 X176.240 Y49.830 E0.01525
G1 X176.638 Y49.551 E0.01525
G1 X177.079 Y49.345 E0.01525
G1 X177.189 Y49.316 E0.00357
G1 X177.038 Y49.246 E0.00520
G1 X176.725 Y49.033 E0.01188
G1 X176.470 Y48.778 E0.01129
G1 X176.266 Y48.487 E0.01115
G1 X176.116 Y48.165 E0.01115
G1 X176.024 Y47.821 E0.01115
G1 X175.993 Y47.467 E0.01115
G1 X176.024 Y47.113 E0.01115
G1 X176.116 Y46.769 E0.01115
G1 X176.266 Y46.447 E0.01115
G1 X176.470 Y46.156 E0.01115
G1 X176.722 Y45.904 E0.01115
G1 X177.013 Y45.700 E0.01115
G1 X177.335 Y45.550 E0.01115
G1 X177.679 Y45.458 E0.01115
G1 X178.005 Y45.429 E0.01027
G1 X178.383 Y45.457 E0.01188
G1 X178.731 Y45.550 E0.01129
G1 X179.053 Y45.700 E0.01115
G1 X179.344 Y45.904 E0.01115
G1 X179.596 Y46.156 E0.01115
G1 X179.800 Y46.447 E0.01115
G1 X179.950 Y46.769 E0.01115
G1 X180.042 Y47.113 E0.01115
G1 X180.073 Y47.467 E0.01115
G1 X180.042 Y47.821 E0.01115
G1 X179.950 Y48.165 E0.01115
G1 X179.812 Y48.462 E0.01027
G1 X179.599 Y48.775 E0.01188
G1 X179.344 Y49.030 E0.01129
G1 X179.053 Y49.234 E0.01115
G1 X178.877 Y49.316 E0.00608
G1 X178.987 Y49.345 E0.00357
G1 X179.428 Y49.551 E0.01525
G1 X179.826 Y49.830 E0.01525
G1 X180.170 Y50.174 E0.01525
G1 X180.432 Y50.547 E0.01428
G1 X180.654 Y51.009 E0.01610
G1 X180.684 Y51.123 E0.00368
G1 X180.766 Y50.947 E0.00608
G1 X180.970 Y50.656 E0.01115
G1 X181.222 Y50.404 E0.01115
G1 X181.513 Y50.200 E0.01115
G1 X181.835 Y50.050 E0.01115
G1 X182.179 Y49.958 E0.01115
G1 X182.505 Y49.929 E0.01027
G1 X182.883 Y49.957 E0.01188
G1 X183.231 Y50.050 E0.01129
G1 X183.553 Y50.200 E0.01115
G1 X183.844 Y50.404 E0.01115
G1 X184.096 Y50.656 E0.01115
G1 X184.300 Y50.947 E0.01115
G1 X184.450 Y51.269 E0.01115
G1 X184.542 Y51.613 E0.01115
G1 X184.573 Y51.967 E0.01115
G1 X184.542 Y52.321 E0.01115
G1 X184.450 Y52.665 E0.01115
G1 X184.312 Y52.962 E0.01027
G1 X184.099 Y53.275 E0.01188
G1 X183.844 Y53.530 E0.01129
G1 X183.553 Y53.734 E0.01115
G1 X183.231 Y53.884 E0.01115
G1 X182.887 Y53.976 E0.01115
G1 X182.533 Y54.007 E0.01115
G1 X182.179 Y53.976 E0.01115
G1 X181.835 Y53.884 E0.01115
G1 X181.538 Y53.746 E0.01027
G1 X181.225 Y53.533 E0.01188
G1 X180.970 Y53.278 E0.01129
G1 X180.766 Y52.987 E0.01115
G1 X180.684 Y52.811 E0.00608
G1 X180.655 Y52.921 E0.00357
G1 X180.449 Y53.362 E0.01525
G1 X180.170 Y53.760 E0.01525
G1 X179.826 Y54.104 E0.01525
G1 X179.428 Y54.383 E0.01525
G1 X178.987 Y54.589 E0.01525
G1 X178.877 Y54.618 E0.00357
G1 X179.053 Y54.700 E0.00608
G1 X179.344 Y54.904 E0.01115
G1 X179.596 Y55.156 E0.01115
G1 X179.800 Y55.447 E0.01115
G1 X179.950 Y55.769 E0.01115
G1 X180.042 Y56.113 E0.01115
G1 X180.073 Y56.467 E0.01115
G1 X180.042 Y56.821 E0.01115
G1 X179.950 Y57.165 E0.01115
G1 X179.812 Y57.462 E0.01027
G1 X179.599 Y57.775 E0.01188
G1 X179.344 Y58.030 E0.01129
G1 X179.053 Y58.234 E0.01115
G1 X178.731 Y58.384 E0.01115
G1 X178.387 Y58.476 E0.01115
G1 X178.033 Y58.507 E0.01115
G1 X177.679 Y58.476 E0.01115
G1 X177.335 Y58.384 E0.01115
G1 X177.038 Y58.246 E0.01027
G1 X176.725 Y58.033 E0.01188
G1 X176.470 Y57.778 E0.01129
G1 X176.266 Y57.487 E0.01115
G1 X176.116 Y57.165 E0.01115
G1 X176.024 Y56.821 E0.01115
G1 X175.993 Y56.467 E0.01115
G1 X176.024 Y56.113 E0.01115
G1 X176.116 Y55.769 E0.01115
G1 X176.266 Y55.447 E0.01115
G1 X176.470 Y55.156 E0.01115
G1 X176.722 Y54.904 E0.01115
G1 X177.013 Y54.700 E0.01115
G1 X177.189 Y54.618 E0.00608
G1 X177.079 Y54.589 E0.00357
G1 X176.638 Y54.383 E0.01525
G1 X176.240 Y54.104 E0.01525
G1 X175.896 Y53.760 E0.01525
G1 X175.617 Y53.362 E0.01525
G1 X175.397 Y52.869 E0.01691
G1 F8640.000
G1 X175.312 Y52.962 E-0.02906
G1 X175.099 Y53.275 E-0.08751
G1 X174.844 Y53.530 E-0.08313
G1 X174.553 Y53.734 E-0.08211
G1 X174.231 Y53.884 E-0.08211
G1 X173.887 Y53.976 E-0.08211
G1 X173.533 Y54.007 E-0.08211
G1 X173.179 Y53.976 E-0.08211
G1 X172.835 Y53.884 E-0.08211
G1 X172.570 Y53.760 E-0.06763
G1 E-0.04000 F2100.00000
G1 Z0.600 F10800.000
G1 X176.965 Y55.194
G1 Z0.200
G1 E0.80000 F2100.00000
G1 F1200.000
G1 X177.202 Y55.028 E0.00908
G1 X177.465 Y54.906 E0.00908
G1 X177.744 Y54.831 E0.00908
G1 X178.008 Y54.808 E0.00829
G1 X178.320 Y54.830 E0.00981
